X: 10273
Q: "Slow."
M: C
L: 1/16
K: Eb
e6 B2 G6 FE | c6 ec B2z4 A2 |\
(G2B2) (e2d2) (e2B2) (A2G2) | (G4 F4) z4 F3B |\
=A4 B4 c4 z2d2 | e4 e4 f4 z2e2 |\
(d2ef) (g2fe) d4 c4 | B12 |]
c6 d2 (e2B2) (A2G2) | (G4 F4) z4 E3F |\
(cded e)(cBA) G4 F4 | E8 z2 |]


